packages/bezier-icons/icons/time-elapsed.svg

<svg width="24" height="24" viewBox="0 0 24 24" fill="none" xmlns="http://www.w3.org/2000/svg">
<path fill-rule="evenodd" clip-rule="evenodd" d="M12.0002 2.00011H11.0002V6.00011H13.0002V4.06211C16.9412 4.55611 20.0002 7.92811 20.0002 12.0001C20.0002 16.4111 16.4112 20.0001 12.0002 20.0001C7.5892 20.0001 4.0002 16.4111 4.0002 12.0001C4.0002 10.2001 4.5902 8.49111 5.6792 7.09411L10.0742 11.4881C10.0302 11.6521 9.9992 11.8221 9.9992 12.0001C9.9992 13.1041 10.8952 14.0001 11.9992 14.0001C13.1042 14.0001 13.9992 13.1041 13.9992 12.0001C13.9992 10.8961 13.1042 10.0001 11.9992 10.0001C11.8212 10.0001 11.6522 10.0311 11.4882 10.0741L5.6362 4.22111L4.9292 4.92911C3.0402 6.81811 2.0002 9.32911 2.0002 12.0001C2.0002 17.5141 6.4862 22.0001 12.0002 22.0001C17.5142 22.0001 22.0002 17.5141 22.0002 12.0001C22.0002 6.48611 17.5142 2.00011 12.0002 2.00011Z" fill="#313234"/>
</svg>

<svg xmlns="http://www.w3.org/2000/svg" width="24" height="24" fill="none" viewBox="0 0 24 24"><path fill="#313234" fill-rule="evenodd" d="M12 2h-1v4h2V4.062c3.941.494 7 3.866 7 7.938 0 4.411-3.589 8-8 8s-8-3.589-8-8c0-1.8.59-3.509 1.68-4.906l4.394 4.394A2 2 0 0 0 10 12a2 2 0 1 0 2-2c-.178 0-.347.031-.51.074L5.635 4.221l-.707.708A9.93 9.93 0 0 0 2 12c0 5.514 4.486 10 10 10s10-4.486 10-10S17.514 2 12 2" clip-rule="evenodd"/></svg>
